icons/Logos/taobao-line.svg

<svg viewBox="0 0 24 24" xmlns="http://www.w3.org/2000/svg"><path d="M17.1727 13.9994H14.5011V15.3749C15.0503 15.1529 15.6538 14.8837 16.3132 14.5644C16.2861 14.4863 16.2586 14.4069 16.2306 14.3261L17.1727 13.9994ZM18.0011 13.7122L18.1202 13.6709C18.762 15.5217 19.1553 16.6823 19.3059 17.1711L17.3945 17.7599C17.3205 17.5196 17.1778 17.088 16.9672 16.4677C10.8856 19.3519 8.29581 18.5219 7.95943 14.5601L9.95226 14.3909C10.0512 15.5559 10.2958 16.0119 10.8486 16.1427C11.2419 16.2356 11.7895 16.2058 12.5011 16.0382V13.9994H9.00108V11.9994H9.51418L8.34713 10.6093C9.39046 9.7334 10.2047 8.77958 10.7955 7.74579C10.2773 7.88016 9.75799 8.0255 9.24396 8.18047C8.70907 8.96425 8.12459 9.66743 7.49009 10.2893L6.09012 8.86102C7.36251 7.61388 8.42283 5.95206 9.26582 3.86719L11.12 4.6169C10.9669 4.99557 10.8067 5.36276 10.6394 5.71842C14.3425 4.78293 17.9154 4.40123 19.7784 5.03839C21.0008 5.45649 21.6968 6.42975 21.9655 7.62252C22.1357 8.37822 22.2785 10.3114 22.2785 12.745C22.2785 15.5527 22.2225 16.5161 21.9385 17.3671C21.6414 18.2572 21.2416 18.7851 20.5308 19.3513C19.874 19.8744 18.9779 20.1145 17.8864 20.1745C17.213 20.2115 16.5177 20.177 15.7915 20.0953C15.6722 20.0819 15.5574 20.0678 15.4372 20.0521C15.3685 20.0431 15.2944 20.0331 15.195 20.0197L15.4588 18.0372C15.5638 18.0514 15.6325 18.0606 15.6962 18.069C15.8053 18.0832 15.9084 18.0959 16.0149 18.1079C16.6398 18.1781 17.2313 18.2075 17.7767 18.1775C18.4915 18.1382 19.0222 17.996 19.2848 17.7869C19.7107 17.4476 19.8761 17.2293 20.0414 16.7339C20.2266 16.179 20.2785 15.2855 20.2785 12.745C20.2785 10.4468 20.1453 8.64316 20.0144 8.0621C19.8845 7.48572 19.6032 7.0922 19.1312 6.93077C17.9245 6.51807 15.3297 6.73655 12.4792 7.34695L13.0936 7.60933C12.9644 7.91184 12.8213 8.20855 12.6645 8.49944H18.0011V10.4994H14.5011V11.9994H18.0011V13.7122ZM12.5011 10.4994H11.2926C10.8487 11.0228 10.3508 11.5229 9.79935 11.9994H12.5011V10.4994ZM2.4625 10.0611L3.53965 8.37596C4.602 9.055 6.47526 10.8031 6.87794 11.5376C8.1167 13.7971 7.07554 15.7131 3.75606 19.5349L2.24609 18.2234C4.9334 15.1294 5.74623 13.6336 5.12421 12.499C4.91013 12.1085 3.26737 10.5756 2.4625 10.0611ZM5.14134 7.58285C4.09313 7.58285 3.25859 6.82088 3.25456 5.88958C3.25456 4.95023 4.09313 4.18826 5.14134 4.18826C6.18149 4.18826 7.02409 4.94619 7.02409 5.88958C7.02409 6.82491 6.18149 7.58285 5.14134 7.58285Z"/></svg>

<svg xmlns="http://www.w3.org/2000/svg" viewBox="0 0 24 24">
    <g>
        <path fill="none" d="M0 0h24v24H0z"/>
        <path fill-rule="nonzero" d="M17.172 14H14.5v1.375c.55-.221 1.153-.49 1.812-.81l-.082-.238.942-.327zm.828-.287l.12-.042c.641 1.851 1.034 3.012 1.185 3.5l-1.912.59c-.074-.24-.216-.672-.427-1.293-6.081 2.885-8.671 2.054-9.008-1.907l1.993-.17c.1 1.165.344 1.622.897 1.752.393.093.94.063 1.652-.104V14H9v-2h.513l-1.167-1.39c1.043-.876 1.858-1.83 2.448-2.864-.518.135-1.037.28-1.551.435a13.955 13.955 0 0 1-1.754 2.109l-1.4-1.428c1.272-1.248 2.333-2.91 3.176-4.994l1.854.75a21.71 21.71 0 0 1-.48 1.101c3.702-.936 7.275-1.317 9.138-.68 1.223.418 1.919 1.391 2.187 2.584.17.756.313 2.689.313 5.123 0 2.807-.056 3.77-.34 4.622-.297.89-.696 1.418-1.407 1.984-.657.523-1.553.763-2.645.823-.673.037-1.368.003-2.095-.08a19.614 19.614 0 0 1-.596-.075l.264-1.982a57.039 57.039 0 0 0 .556.07c.625.07 1.216.1 1.762.07.714-.04 1.245-.181 1.508-.39.426-.34.591-.558.756-1.054.186-.554.237-1.448.237-3.988 0-2.299-.133-4.102-.264-4.683-.13-.577-.41-.97-.883-1.132-1.207-.412-3.801-.194-6.652.417l.615.262c-.13.302-.273.6-.43.89H18v2h-3.5V12H18v1.713zM12.5 10.5h-1.208A13.685 13.685 0 0 1 9.798 12H12.5v-1.5zm-10.039-.438L3.54 8.377c1.062.679 2.935 2.427 3.338 3.161 1.239 2.26.197 4.176-3.122 7.997l-1.51-1.311c2.687-3.094 3.5-4.59 2.878-5.724-.214-.39-1.857-1.924-2.662-2.438zm2.68-2.479c-1.049 0-1.883-.762-1.888-1.693 0-.94.84-1.701 1.887-1.701 1.04 0 1.883.758 1.883 1.701 0 .935-.843 1.693-1.883 1.693z"/>
    </g>
</svg>
